X:1

T:Robert Cormack, Aberdeen

C:James Henry (1860-1914)

S:The Flowers of Scottish Melody (1935)

N:"Sweetly"; B part "Faster"

Z:Nigel Gatherer

M:4/4

L:1/8

K:F

C | F>CA>F D>B,G,>G | E/F/G/A/ B/c/d/e/ {e}f2-fA/c/ |\

d>B D/F/B/d/ c>A C/F/A/c/ | {c}B>D{A}G>F E/F/{A}G/F/ E/d/c/E/ |

[A,F]>CA>F D>B,G,>G | E/F/G/A/ B/c/d/e/ f2-fA/c/|\

(3dfe {a}(3g>fd (3cfe {g}(3f>cA|(3GDF (3Edc {A,}[A,2F2] [A,F] |]

c | f>c f/a/c/f A/F/A/c/ f>A | B/A/B/c/ d/c/B/A/ G/F/E/D/ C>c |\

f>c f/a/c/f A/F/A/c/ f>A | B>d/g/f/ e/c/d/e/ {e}f2 fc |

f>c f/a/c/f A/F/A/c/ f>A | B/A/B/c/ d/c/B/A/ G/^F/G/A/ B/c/d/e/ |\

f/e/f/g/ a/b/c'/d'/ c'/a/f/c/ A/F/C/A,/ | A/c/f/a/ g/d'/c'/e'/ f'2f |]

                       

ROBERT E. LEE SWING. See "Richmond Cotillion." None other than the revered Confederate commanding general during America's Civil War.

***

Robert E. Lee

                       

ROBERT HAWKES. Irish, Planxty. G Mixolydian. Standard tuning. One Part. Composed by blind Irish harper Turlough O'Carolan (1670-1738). Complete Collection of Carolan's Irish Tunes, 1984; No. 55, pg. 53.

                       

ROBERT INNES OF STIRLING UNIVERSITY. Scottish, Slow Air (4/4 time). G Major. Standard tuning. AAB. Mr. Innes is responsible, with Shetland fiddler Tom Anderson, since 1978 for the Scots Fiddle Summer School at the University, where he was Director of Continuing Education. Hardie (Caledonian Companion), 1992; pg. 78.

                       

ROBERT JORDAN. Irish, Planxty. A Major. Standard tuning. AABB. Composed by blind Irish harper Turlough O'Carolan (1670-1738). Complete Collection of Carolan's Irish Tunes, 1984; No. 66, pg. 59.


                       

ROBERT KENNEDY'S REEL. AKA and see “Captain Kennedy’s (Reel).” English, Reel. England, Northumberland. G Major. Standard tuning. AABB. Seattle (William Vickers), 1987, Part 3; No. 568.

                       

ROBERT MACNEIL. Canadian, Reel. Canada, Cape Breton. E Flat Major. Standard tuning. AB. Composed by Cape Breton fiddler and composer Dan R. MacDonald (1911-1976). Cameron (Trip to Windsor), 1994; pg. 29.

                       

ROBERT MENZIES. Scottish, Strathspey. A Major. Standard tuning. AAB (Athole): AABB' (Kerr). The tune is credited to "D. Mc. K." by James Stewart-Robertson in The Athole Collection. Kerr (Merry Melodies), vol. 2; No. 29, pg. 6. Stewart-Robertson (The Athole Collection), 1884; pg. 32.

